src/scalable/devices/battery.svg

<svg xmlns="http://www.w3.org/2000/svg" width="64" height="64" version="1"><circle cx="32" cy="32" r="26" fill="#71bc42" paint-order="markers stroke fill"/><path d="M26 20.428V23h-2c-.554 0-1 .446-1 1v18c0 .554.446 1 1 1h16c.554 0 1-.446 1-1V24c0-.554-.446-1-1-1h-2v-2.572H26z" fill="#fff"/><path d="M25 25v4h14v-4zm0 6v4h14v-4zm0 6v4h14v-4z" fill="#c0f957"/></svg>

<?xml version="1.0" encoding="UTF-8" standalone="no"?>
<svg
   xmlns:dc="http://purl.org/dc/elements/1.1/"
   xmlns:cc="http://creativecommons.org/ns#"
   xmlns:rdf="http://www.w3.org/1999/02/22-rdf-syntax-ns#"
   xmlns:svg="http://www.w3.org/2000/svg"
   xmlns="http://www.w3.org/2000/svg"
   xmlns:sodipodi="http://sodipodi.sourceforge.net/DTD/sodipodi-0.dtd"
   xmlns:inkscape="http://www.inkscape.org/namespaces/inkscape"
   width="64"
   height="64"
   version="1"
   id="svg16"
   sodipodi:docname="battery.svg"
   inkscape:version="0.92.2 2405546, 2018-03-11">
  <metadata
     id="metadata22">
    <rdf:RDF>
      <cc:Work
         rdf:about="">
        <dc:format>image/svg+xml</dc:format>
        <dc:type
           rdf:resource="http://purl.org/dc/dcmitype/StillImage" />
      </cc:Work>
    </rdf:RDF>
  </metadata>
  <defs
     id="defs20" />
  <sodipodi:namedview
     pagecolor="#ffffff"
     bordercolor="#666666"
     borderopacity="1"
     objecttolerance="10"
     gridtolerance="10"
     guidetolerance="10"
     inkscape:pageopacity="0"
     inkscape:pageshadow="2"
     inkscape:window-width="1920"
     inkscape:window-height="1022"
     id="namedview18"
     showgrid="true"
     inkscape:snap-bbox="true"
     inkscape:bbox-nodes="true"
     inkscape:zoom="5.2149125"
     inkscape:cx="-15.549296"
     inkscape:cy="29.224906"
     inkscape:window-x="0"
     inkscape:window-y="28"
     inkscape:window-maximized="1"
     inkscape:current-layer="svg16">
    <inkscape:grid
       type="xygrid"
       id="grid839" />
  </sodipodi:namedview>
  <circle
     style="opacity:1;fill:#71bc42;fill-opacity:1;stroke:none;stroke-width:1.52345753;stroke-linecap:round;stroke-linejoin:round;stroke-miterlimit:4;stroke-dasharray:none;stroke-opacity:0.05882353;paint-order:markers stroke fill"
     id="path829"
     cx="32"
     cy="32"
     r="26" />
  <path
     style="fill:#ffffff;stroke-width:0.42257714"
     d="M 26 20.427734 L 26 23 L 24 23 C 23.446 23 23 23.446 23 24 L 23 42 C 23 42.554 23.446 43 24 43 L 40 43 C 40.554 43 41 42.554 41 42 L 41 24 C 41 23.446 40.554 23 40 23 L 38 23 L 38 20.427734 L 26 20.427734 z "
     id="rect4" />
  <path
     inkscape:connector-curvature="0"
     style="fill:#c0f957;stroke-width:0.42857143"
     d="m 25,25 v 4 h 14 v -4 z m 0,6 v 4 h 14 v -4 z m 0,6 v 4 h 14 v -4 z"
     id="path10"
     sodipodi:nodetypes="ccccccccccccccc" />
</svg>
